X:1
T:Gee But I Wanna Go Home
M:4/4
L:1/8
K:G
 D| GG GG G A2 G| GF F=F ^F3 D| AA AA AB BA| AG GF G4| E3 FG FG F|\
 D2 G2 B4| d d2 Bc B A2| G6 z z|
